X:1
T:The Marquis of Tweeddale's Proclamation
M:C|
L:1/8
C:T. S. Macdonald
K:D
D<dc<d A<F D2 | e>f (g/f/)e/d/ c<ee>f | D<dc>d A<F D2 | E>e d/c/B/A/ d2 !turn!d2 |
D<dc>d A<F D2 | e>f g/f/e/d/ c/d/e/c/ A2 | D<dc>d B<dg>b | a>f (a/g/)f/e/ f<dd>f ||
a<df<d (A/B/)c/d/ e>f | g>fe>d c<ee>f | a<df<d (A/B/)c/d/ e>f | g<ba>g f<dd>f |
a<df<d e>cd>A | (3 Bcd A>F G<EE>F | D<dc>d B<dg>b | a>f (a/g/)f/e/ f<dd>f |]

